static/images/download/apk.svg

<svg width="64" height="59" viewBox="0 0 64 59" fill="none" xmlns="http://www.w3.org/2000/svg">
<path d="M52.3636 58.1818L40.7273 46.5455L44.8 42.4L49.4545 46.9818V34.9091H55.2727V46.9818L59.9273 42.4L64 46.5455L52.3636 58.1818ZM5.81819 58.1818C4.21819 58.1818 2.848 57.6116 1.70764 56.4713C0.567277 55.3309 -0.00193445 53.9617 4.93904e-06 52.3636V5.81819C4.93904e-06 4.21819 0.570187 2.848 1.71055 1.70764C2.85091 0.567277 4.22013 -0.00193445 5.81819 4.93904e-06H29.0909L46.5455 17.4545V29.8182H37.8182V58.1818H5.81819ZM26.1818 20.3636H40.7273L26.1818 5.81819V20.3636ZM8.72728 49.4545H37.8182C37.6242 47.0788 36.897 44.897 35.6364 42.9091C34.3758 40.9212 32.7273 39.3455 30.6909 38.1818L33.4545 33.2364C33.5515 33.0424 33.5758 32.8242 33.5273 32.5818C33.4788 32.3394 33.3333 32.1697 33.0909 32.0727C32.897 31.9758 32.6904 31.9515 32.4713 32C32.2521 32.0485 32.095 32.1697 32 32.3636L29.1636 37.4545C28.1939 37.0667 27.2242 36.7632 26.2545 36.544C25.2849 36.3249 24.2909 36.2162 23.2727 36.2182C22.2545 36.2182 21.2606 36.3278 20.2909 36.5469C19.3212 36.7661 18.3515 37.0686 17.3818 37.4545L14.5455 32.3636C14.4485 32.1212 14.2904 32 14.0713 32C13.8521 32 13.6223 32.0485 13.3818 32.1455L13.0909 33.2364L15.8545 38.1818C13.8182 39.3455 12.1697 40.9212 10.9091 42.9091C9.64849 44.897 8.92122 47.0788 8.72728 49.4545ZM16.7273 45.0909C16.3394 45.0909 16 44.9455 15.7091 44.6545C15.4182 44.3636 15.2727 44.0242 15.2727 43.6364C15.2727 43.2485 15.4182 42.9091 15.7091 42.6182C16 42.3273 16.3394 42.1818 16.7273 42.1818C17.1152 42.1818 17.4546 42.3273 17.7455 42.6182C18.0364 42.9091 18.1818 43.2485 18.1818 43.6364C18.1818 44.0242 18.0364 44.3636 17.7455 44.6545C17.4546 44.9455 17.1152 45.0909 16.7273 45.0909ZM29.8182 45.0909C29.4303 45.0909 29.0909 44.9455 28.8 44.6545C28.5091 44.3636 28.3636 44.0242 28.3636 43.6364C28.3636 43.2485 28.5091 42.9091 28.8 42.6182C29.0909 42.3273 29.4303 42.1818 29.8182 42.1818C30.2061 42.1818 30.5455 42.3273 30.8364 42.6182C31.1273 42.9091 31.2727 43.2485 31.2727 43.6364C31.2727 44.0242 31.1273 44.3636 30.8364 44.6545C30.5455 44.9455 30.2061 45.0909 29.8182 45.0909Z" fill="#FDBE00"/>
</svg>

<svg width="64" height="59" fill="none" xmlns="http://www.w3.org/2000/svg"><path d="M52.364 58.182 40.727 46.545 44.8 42.4l4.655 4.582V34.909h5.818v12.073l4.654-4.582L64 46.545 52.364 58.182Zm-46.546 0c-1.6 0-2.97-.57-4.11-1.71C.568 55.33-.002 53.961 0 52.363V5.818c0-1.6.57-2.97 1.71-4.11C2.85.568 4.22-.002 5.819 0h23.273l17.454 17.454v12.364h-8.727v28.364h-32Zm20.364-37.818h14.545L26.182 5.818v14.546ZM8.727 49.454h29.091a14.199 14.199 0 0 0-2.182-6.545 13.996 13.996 0 0 0-4.945-4.727l2.764-4.946a.991.991 0 0 0 .072-.654.665.665 0 0 0-.436-.51.908.908 0 0 0-.62-.072.654.654 0 0 0-.471.364l-2.836 5.09c-.97-.387-1.94-.69-2.91-.91-.97-.22-1.963-.328-2.981-.326-1.018 0-2.012.11-2.982.329-.97.22-1.94.522-2.91.908l-2.835-5.091c-.098-.243-.256-.364-.475-.364-.219 0-.449.048-.69.145l-.29 1.091 2.764 4.946a13.997 13.997 0 0 0-4.946 4.727 14.198 14.198 0 0 0-2.182 6.546Zm8-4.363c-.388 0-.727-.145-1.018-.437-.29-.29-.436-.63-.436-1.018s.145-.727.436-1.018c.291-.29.63-.436 1.018-.436s.728.145 1.018.436c.291.291.437.63.437 1.018s-.146.728-.436 1.018c-.291.291-.63.437-1.019.437Zm13.091 0c-.388 0-.727-.145-1.018-.437-.29-.29-.436-.63-.436-1.018s.145-.727.436-1.018c.29-.29.63-.436 1.018-.436s.727.145 1.018.436c.291.291.437.63.437 1.018s-.146.728-.437 1.018c-.29.291-.63.437-1.018.437Z" fill="#FDBE00"/></svg>
